X:11866
T:no name
R:reel
Z:id:hn-reel-521
M:C|
K:Amix
cAAB cAGB|Adde f2ed|cAAB cdeg|1 fage d2ed:|2 fage d2cd||
|:eaaf gfed|cdef g2fg|1 ea~a2 efed|eage d2cd:|2 eaag ~a3g|eage d2ed||
